X: 17977
T: Hugh Gillespie's
R: mazurka
M: 3/4
K: Gmajor
|:D>G B2 B2|G>B d2 d2|A>B c2 c>e|dc B2 B2|
D>G B2 B2|G>B d2 d2|A>B c2 c>A|F>A G2 G2:|
|:g>f e2 e>f|ge d2 d2|A>B c2 c>e|dc B2 B2|
g>f e2 e>f|ge d2 d2|A>B c2 c>A|F>A G2 G2:|

